public/assets/icons/ic_flag_en.svg

<svg height="20" viewBox="0 0 28 20" width="28" xmlns="http://www.w3.org/2000/svg" xmlns:xlink="http://www.w3.org/1999/xlink"><defs><rect id="a" height="20" rx="3" width="28"/><mask id="b" fill="#fff"><use fill="#fff" fill-rule="evenodd" xlink:href="#a"/></mask></defs><g fill="none" fill-rule="evenodd"><use fill="#0a17a7" xlink:href="#a"/><path d="m29.2824692-1.91644623 1.4911811 2.21076686-9.4483006 6.37223314 6.6746503.0001129v6.66666663l-6.6746503-.0007795 9.4483006 6.3731256-1.4911811 2.2107668-11.9501195-8.0608924.0009836 7.4777795h-6.6666666l-.000317-7.4777795-11.9488189 8.0608924-1.49118107-2.2107668 9.448-6.3731256-6.67434973.0007795v-6.66666663l6.67434973-.0001129-9.448-6.37223314 1.49118107-2.21076686 11.9488189 8.06.000317-7.4768871h6.6666666l-.0009836 7.4768871z" fill="#fff" mask="url(#b)"/><g stroke="#db1f35" stroke-linecap="round" stroke-width=".667"><path d="m18.668 6.332 12.665-8.332" mask="url(#b)"/><path d="m20.013 21.35 11.354-7.652" mask="url(#b)" transform="matrix(1 0 0 -1 0 35.048)"/><path d="m8.006 6.31-11.843-7.981" mask="url(#b)"/><path d="m9.29 22.31-13.127-8.705" mask="url(#b)" transform="matrix(1 0 0 -1 0 35.915)"/></g><path d="m0 12h12v8h4v-8h12v-4h-12v-8h-4v8h-12z" fill="#e6273e" mask="url(#b)"/></g></svg>

<svg xmlns="http://www.w3.org/2000/svg" xmlns:xlink="http://www.w3.org/1999/xlink" height="20" width="28" xmlns:v="https://vecta.io/nano"><defs><rect id="A" height="20" rx="3" width="28"/><mask id="B" fill="#fff"><use fill="#fff" fill-rule="evenodd" xlink:href="#A"/></mask></defs><g fill="none" fill-rule="evenodd"><use fill="#0a17a7" xlink:href="#A"/><path d="M29.282-1.916L30.774.294l-9.448 6.372H28v6.667h-6.675l9.448 6.373-1.491 2.211-11.95-8.061.001 7.478h-6.667v-7.478l-11.949 8.061-1.491-2.211 9.448-6.373H0V6.667h6.674L-2.774.294l1.491-2.211 11.949 8.06v-7.477h6.667l-.001 7.477z" fill="#fff" mask="url(#B)"/><g stroke="#db1f35" stroke-linecap="round" stroke-width=".667"><path d="M18.668 6.332L31.333-2" mask="url(#B)"/><path d="m20.013 21.35 11.354-7.652" mask="url(#B)" transform="matrix(1 0 0 -1 0 35.048)"/><path d="m8.006 6.31-11.843-7.981" mask="url(#B)"/><path d="m9.29 22.31-13.127-8.705" mask="url(#B)" transform="matrix(1 0 0 -1 0 35.915)"/></g><path d="M0 12h12v8h4v-8h12V8H16V0h-4v8H0z" fill="#e6273e" mask="url(#B)"/></g></svg>
